X: 0126
T: Lady Dumfries - 8x32R
P: Lady Dumfries
C: traditional
B: Miss Milligan's Miscellany v.1 #126
B: Originally Ours v.1 p.175 #MMM-127
Z: 2020 John Chambers <jc:trillian.mit.edu>
M: 4/4
L: 1/8
R: reel
K: F
%
A |:\
"F"F2FA/B/ "C/F"cAag | "D/F"fdcA "G/C7"GFGA |\
"F"F2FA/B/ "C/F"cAag | "F"fc"Gm"ba "C7"g2fA |
"F"F2FA/B/ "D/F"cAag | "D/F"fdcA "E/C7"GFGA |\
"F"F2FA/B/ "D/F"cAag | "F"fc"Gm"ba "C7"g2fg ||
"F"f/g/a af "C7"ge"Bb"fd | "F"cAFA "D/Bb"GFDg |\
"F"f/g/a af "C7"gefd | "F"cA"Gm"ba g2"C7"f>g |
"F"f/g/a af "C7"ge"Bb"fd | "F"cAFA "Bb"GFDg |\
"F"f/g/a af "C7"ge"Bb"fd |1 "F"cA"Gm"ba "C7"g2"F"fA :|2 "F"cA"Gm"ba "C7"g2"F"f2 |]
